images/service-1/norms-2.svg

<svg width="90" height="90" viewBox="0 0 90 90" fill="none" xmlns="http://www.w3.org/2000/svg">
<path d="M18.2812 5.625C15.9576 5.625 14.0625 7.52014 14.0625 9.84375V73.125H8.4375C6.88843 73.125 5.625 74.3884 5.625 75.9375V78.75C5.625 81.8536 8.14636 84.375 11.25 84.375H78.75C81.8536 84.375 84.375 81.8536 84.375 78.75V9.84375C84.375 7.52014 82.4799 5.625 80.1562 5.625H18.2812ZM18.2812 8.4375H80.1562C80.9308 8.4375 81.5625 9.06921 81.5625 9.84375V78.75C81.5625 80.2991 80.2991 81.5625 78.75 81.5625C77.2009 81.5625 75.9375 80.2991 75.9375 78.75V75.9375C75.9375 74.3884 74.6741 73.125 73.125 73.125H16.875V9.84375C16.875 9.06921 17.5067 8.4375 18.2812 8.4375ZM28.125 21.0938C26.5704 21.0938 25.3125 22.3517 25.3125 23.9062C25.3125 25.4608 26.5704 26.7188 28.125 26.7188C29.6796 26.7188 30.9375 25.4608 30.9375 23.9062C30.9375 22.3517 29.6796 21.0938 28.125 21.0938ZM36.5625 22.5C35.788 22.5 35.1562 23.1317 35.1562 23.9062C35.1562 24.6808 35.788 25.3125 36.5625 25.3125H53.4375C54.212 25.3125 54.8438 24.6808 54.8438 23.9062C54.8438 23.1317 54.212 22.5 53.4375 22.5H36.5625ZM59.0625 22.5C58.288 22.5 57.6562 23.1317 57.6562 23.9062C57.6562 24.6808 58.288 25.3125 59.0625 25.3125H64.6875C65.462 25.3125 66.0938 24.6808 66.0938 23.9062C66.0938 23.1317 65.462 22.5 64.6875 22.5H59.0625ZM36.5625 28.125C35.788 28.125 35.1562 28.7567 35.1562 29.5312C35.1562 30.3058 35.788 30.9375 36.5625 30.9375H60.4688C61.2433 30.9375 61.875 30.3058 61.875 29.5312C61.875 28.7567 61.2433 28.125 60.4688 28.125H36.5625ZM28.125 35.1562C26.5704 35.1562 25.3125 36.4142 25.3125 37.9688C25.3125 39.5233 26.5704 40.7812 28.125 40.7812C29.6796 40.7812 30.9375 39.5233 30.9375 37.9688C30.9375 36.4142 29.6796 35.1562 28.125 35.1562ZM36.5625 36.5625C35.788 36.5625 35.1562 37.1942 35.1562 37.9688C35.1562 38.7433 35.788 39.375 36.5625 39.375H70.3125C71.087 39.375 71.7188 38.7433 71.7188 37.9688C71.7188 37.1942 71.087 36.5625 70.3125 36.5625H36.5625ZM36.5625 42.1875C35.788 42.1875 35.1562 42.8192 35.1562 43.5938C35.1562 44.3683 35.788 45 36.5625 45H64.6875C65.462 45 66.0938 44.3683 66.0938 43.5938C66.0938 42.8192 65.462 42.1875 64.6875 42.1875H36.5625ZM28.125 49.2188C26.5704 49.2188 25.3125 50.4767 25.3125 52.0312C25.3125 53.5858 26.5704 54.8438 28.125 54.8438C29.6796 54.8438 30.9375 53.5858 30.9375 52.0312C30.9375 50.4767 29.6796 49.2188 28.125 49.2188ZM36.5625 50.625C35.788 50.625 35.1562 51.2567 35.1562 52.0312C35.1562 52.8058 35.788 53.4375 36.5625 53.4375H47.8125C48.587 53.4375 49.2188 52.8058 49.2188 52.0312C49.2188 51.2567 48.587 50.625 47.8125 50.625H36.5625ZM53.4375 50.625C52.663 50.625 52.0312 51.2567 52.0312 52.0312C52.0312 52.8058 52.663 53.4375 53.4375 53.4375H66.0938C66.8683 53.4375 67.5 52.8058 67.5 52.0312C67.5 51.2567 66.8683 50.625 66.0938 50.625H53.4375ZM21.0938 64.6875C20.3192 64.6875 19.6875 65.3192 19.6875 66.0938V68.9062C19.6875 69.6808 20.3192 70.3125 21.0938 70.3125C21.8683 70.3125 22.5 69.6808 22.5 68.9062V66.0938C22.5 65.3192 21.8683 64.6875 21.0938 64.6875ZM28.125 64.6875C27.3505 64.6875 26.7188 65.3192 26.7188 66.0938V68.9062C26.7188 69.6808 27.3505 70.3125 28.125 70.3125C28.8995 70.3125 29.5312 69.6808 29.5312 68.9062V66.0938C29.5312 65.3192 28.8995 64.6875 28.125 64.6875ZM35.1562 64.6875C34.3817 64.6875 33.75 65.3192 33.75 66.0938V68.9062C33.75 69.6808 34.3817 70.3125 35.1562 70.3125C35.9308 70.3125 36.5625 69.6808 36.5625 68.9062V66.0938C36.5625 65.3192 35.9308 64.6875 35.1562 64.6875ZM42.1875 64.6875C41.413 64.6875 40.7812 65.3192 40.7812 66.0938V68.9062C40.7812 69.6808 41.413 70.3125 42.1875 70.3125C42.962 70.3125 43.5938 69.6808 43.5938 68.9062V66.0938C43.5938 65.3192 42.962 64.6875 42.1875 64.6875ZM49.2188 64.6875C48.4442 64.6875 47.8125 65.3192 47.8125 66.0938V68.9062C47.8125 69.6808 48.4442 70.3125 49.2188 70.3125C49.9933 70.3125 50.625 69.6808 50.625 68.9062V66.0938C50.625 65.3192 49.9933 64.6875 49.2188 64.6875ZM56.25 64.6875C55.4755 64.6875 54.8438 65.3192 54.8438 66.0938V68.9062C54.8438 69.6808 55.4755 70.3125 56.25 70.3125C57.0245 70.3125 57.6562 69.6808 57.6562 68.9062V66.0938C57.6562 65.3192 57.0245 64.6875 56.25 64.6875ZM63.2812 64.6875C62.5067 64.6875 61.875 65.3192 61.875 66.0938V68.9062C61.875 69.6808 62.5067 70.3125 63.2812 70.3125C64.0558 70.3125 64.6875 69.6808 64.6875 68.9062V66.0938C64.6875 65.3192 64.0558 64.6875 63.2812 64.6875ZM70.3125 64.6875C69.538 64.6875 68.9062 65.3192 68.9062 66.0938V68.9062C68.9062 69.6808 69.538 70.3125 70.3125 70.3125C71.087 70.3125 71.7188 69.6808 71.7188 68.9062V66.0938C71.7188 65.3192 71.087 64.6875 70.3125 64.6875ZM77.3438 64.6875C76.5692 64.6875 75.9375 65.3192 75.9375 66.0938V68.9062C75.9375 69.6808 76.5692 70.3125 77.3438 70.3125C78.1183 70.3125 78.75 69.6808 78.75 68.9062V66.0938C78.75 65.3192 78.1183 64.6875 77.3438 64.6875ZM8.4375 75.9375H73.125V78.75C73.125 79.7772 73.4216 80.733 73.9105 81.5625H11.25C9.70093 81.5625 8.4375 80.2991 8.4375 78.75V75.9375Z" fill="#E4B564"/>
</svg>

<svg width="90" height="90" fill="none" xmlns="http://www.w3.org/2000/svg"><path d="M18.281 5.625a4.227 4.227 0 00-4.218 4.219v63.281H8.436a2.818 2.818 0 00-2.812 2.813v2.812a5.629 5.629 0 005.625 5.625h67.5a5.629 5.629 0 005.625-5.625V9.844a4.227 4.227 0 00-4.219-4.219H18.281zm0 2.813h61.875c.775 0 1.406.631 1.406 1.406V78.75a2.818 2.818 0 01-2.812 2.813 2.818 2.818 0 01-2.813-2.813v-2.813a2.818 2.818 0 00-2.812-2.812h-56.25V9.844c0-.775.632-1.406 1.406-1.406zm9.844 12.656a2.81 2.81 0 00-2.813 2.812 2.81 2.81 0 002.813 2.813 2.81 2.81 0 002.813-2.813 2.81 2.81 0 00-2.813-2.812zm8.438 1.406a1.41 1.41 0 00-1.407 1.406 1.41 1.41 0 001.407 1.407h16.874a1.41 1.41 0 001.407-1.407 1.41 1.41 0 00-1.407-1.406H36.564zm22.5 0a1.41 1.41 0 00-1.407 1.406 1.41 1.41 0 001.407 1.407h5.624a1.41 1.41 0 001.407-1.407 1.41 1.41 0 00-1.406-1.406h-5.626zm-22.5 5.625a1.41 1.41 0 00-1.407 1.406 1.41 1.41 0 001.407 1.407h23.906a1.41 1.41 0 001.406-1.407 1.41 1.41 0 00-1.406-1.406H36.562zm-8.438 7.031a2.81 2.81 0 00-2.813 2.813 2.81 2.81 0 002.813 2.812 2.81 2.81 0 002.813-2.812 2.81 2.81 0 00-2.813-2.813zm8.438 1.407c-.775 0-1.407.631-1.407 1.406a1.41 1.41 0 001.407 1.406h33.75a1.41 1.41 0 001.406-1.406 1.41 1.41 0 00-1.406-1.407h-33.75zm0 5.624a1.41 1.41 0 00-1.407 1.407A1.41 1.41 0 0036.563 45h28.124a1.41 1.41 0 001.407-1.406 1.41 1.41 0 00-1.406-1.407H36.561zm-8.438 7.032a2.81 2.81 0 00-2.813 2.812 2.81 2.81 0 002.813 2.813 2.81 2.81 0 002.813-2.813 2.81 2.81 0 00-2.813-2.812zm8.438 1.406a1.41 1.41 0 00-1.407 1.406 1.41 1.41 0 001.407 1.407h11.25a1.41 1.41 0 001.406-1.407 1.41 1.41 0 00-1.407-1.406h-11.25zm16.874 0a1.41 1.41 0 00-1.406 1.406 1.41 1.41 0 001.407 1.407h12.656a1.41 1.41 0 001.406-1.407 1.41 1.41 0 00-1.406-1.406H53.438zM21.094 64.688c-.775 0-1.407.631-1.407 1.406v2.812c0 .775.632 1.406 1.407 1.406.774 0 1.406-.631 1.406-1.406v-2.812c0-.775-.632-1.406-1.406-1.406zm7.031 0c-.774 0-1.406.631-1.406 1.406v2.812c0 .775.631 1.406 1.406 1.406.774 0 1.406-.631 1.406-1.406v-2.812c0-.775-.631-1.406-1.406-1.406zm7.031 0c-.774 0-1.406.631-1.406 1.406v2.812c0 .775.632 1.406 1.406 1.406.775 0 1.407-.631 1.407-1.406v-2.812c0-.775-.632-1.406-1.407-1.406zm7.032 0c-.775 0-1.407.631-1.407 1.406v2.812c0 .775.632 1.406 1.407 1.406.774 0 1.406-.631 1.406-1.406v-2.812c0-.775-.632-1.406-1.407-1.406zm7.03 0c-.774 0-1.406.631-1.406 1.406v2.812c0 .775.632 1.406 1.407 1.406.774 0 1.406-.631 1.406-1.406v-2.812c0-.775-.632-1.406-1.406-1.406zm7.032 0c-.775 0-1.406.631-1.406 1.406v2.812c0 .775.631 1.406 1.406 1.406.775 0 1.406-.631 1.406-1.406v-2.812c0-.775-.631-1.406-1.406-1.406zm7.031 0c-.774 0-1.406.631-1.406 1.406v2.812c0 .775.632 1.406 1.406 1.406.775 0 1.407-.631 1.407-1.406v-2.812c0-.775-.632-1.406-1.407-1.406zm7.032 0c-.775 0-1.407.631-1.407 1.406v2.812c0 .775.632 1.406 1.406 1.406.775 0 1.407-.631 1.407-1.406v-2.812c0-.775-.632-1.406-1.406-1.406zm7.03 0c-.774 0-1.406.631-1.406 1.406v2.812c0 .775.632 1.406 1.407 1.406.774 0 1.406-.631 1.406-1.406v-2.812c0-.775-.632-1.406-1.406-1.406zM8.438 75.938h64.688v2.812a5.52 5.52 0 00.785 2.813H11.25a2.818 2.818 0 01-2.813-2.813v-2.813z" fill="#E4B564"/></svg>
